X:475
T:La trova de los novios
C:Tradicional
S:Msica Tradicional Asturiana, (C) Tello & Tito. Asturies, 2001.
S:http://pagina.de/MusTradAst <telloytito@asturies.org>
N:Cancin
A:Asturies
Z:DyC en Teberga
M:3/8
L:1/8
Q:3/8=60
K:F
dd
|: d2 c|
[M:2/4]BA AB|
[M:3/8]
c2 B|d A2-|AAB|c2 B|c d2-|ddc|B2 A|G F2-|F3-|[1 F dd :|[2 F z2|
